svgs/1F469-1F3FF-200D-1F9B1.svg

<svg xmlns="http://www.w3.org/2000/svg" xmlns:xlink="http://www.w3.org/1999/xlink" preserveAspectRatio="none" viewBox="0 0 72 72"><defs><path id="a" fill="#232020" d="M55.2 48.15q-1.2.2-2.1 1.1-1.15 1.15-1.15 2.75t1.15 2.75l.45.4q.225.175.45.3-.45.25-.9.7-.45.45-.7.95-.25-.05-.5-.05-1.6 0-2.75 1.15-.033.033-.1.05-.647.725-.9 1.6-.25.2-.45.4-1.15 1.15-1.15 2.75t1.15 2.75q1.15 1.15 2.75 1.15t2.75-1.15q.6-.6.85-1.3.8.4 1.75.4 1.6 0 2.75-1.15l.3-.3q.4.05.85.05 1.6 0 2.75-1.15.9-.9 1.1-2.05.75-.3 1.4-.95 1.15-1.15 1.15-2.75 0-1.2-.65-2.1.45-.3.8-.65 1.15-1.15 1.15-2.75 0-1.45-.95-2.55.45-.25.85-.65 1.15-1.15 1.15-2.75 0-1.2-.65-2.15.65-.948.65-2.15 0-1.6-1.15-2.75t-2.75-1.15q-1.6 0-2.75 1.15-.55.55-.85 1.25-1.55 0-2.7 1.15-1.15 1.15-1.15 2.75 0 .3.05.65-.5.25-.9.65-1.15 1.15-1.15 2.75 0 .45.1.9M4.75 38.05Q3.6 39.2 3.6 40.8q0 1.202.65 2.15-.65.948-.65 2.15 0 1.6 1.15 2.75.4.4.85.65-.95 1.094-.95 2.55 0 1.6 1.15 2.75.37.37.75.6-.6.96-.6 2.15 0 1.6 1.15 2.75.633.633 1.4.9.197 1.197 1.1 2.1 1.15 1.15 2.75 1.15.44 0 .85-.1.136.186.3.35 1.15 1.15 2.75 1.15.94 0 1.7-.4.31.71.9 1.3Q20 66.9 21.6 66.9t2.75-1.15Q25.5 64.6 25.5 63t-1.15-2.75q-.216-.216-.45-.4-.263-.913-1-1.65-1.15-1.15-2.75-1.15h-.5q-.267-.467-.7-.9-.427-.427-.95-.7.52-.27.95-.7Q20.1 53.6 20.1 52t-1.15-2.75q-.9-.9-2.1-1.1.1-.45.1-.9 0-1.6-1.15-2.75-.4-.4-.9-.65.05-.35.05-.65 0-1.6-1.15-2.75t-2.7-1.15q-.3-.7-.85-1.25Q9.1 36.9 7.5 36.9t-2.75 1.15z"/><path id="b" fill="#8E726A" d="M106.75 73.45q0-28.7-8.9-42.6Q87.7 14.9 64.15 14.9q-23.55 0-33.9 16.1-9.05 14.15-9.05 42.8 0 24 15.45 37.5 12.35 10.85 27.5 10.85 15.05 0 27.35-11 15.25-13.7 15.25-37.7z"/><path id="c" fill="#444" d="M40.15 72.35q-1.7 2-1.7 4.85 0 2.9 1.7 4.9 1.65 2 4.05 2 2.35 0 4.05-2 1.65-2.05 1.65-4.9 0-2.85-1.65-4.85-1.7-2.05-4.05-2.05-2.4 0-4.05 2.05z"/><path id="d" fill="#444" d="M87.85 72.35q-1.7-2.05-4.05-2.05-2.4 0-4.05 2.05-1.7 2-1.7 4.85 0 2.85 1.7 4.9 1.65 2 4.05 2 2.35 0 4.05-2 1.65-2 1.65-4.9 0-2.85-1.65-4.85z"/><path id="e" fill="#513F35" d="M63.95 108.75q4.9 0 9-2.15 3.2-1.7 4.5-3.7.7-1.05.35-1.7-.35-.65-1.45-.65H51.6q-1.1 0-1.45.65-.35.65.35 1.7 1.3 2 4.5 3.7 4.1 2.15 8.95 2.15z"/><path id="f" fill="#563E37" d="M58 90q-.65-.15-.9.3-.3.4-.05.9.7 1.15 2.4 2.2 2.2 1.35 4.55 1.35 2.35 0 4.5-1.35 1.7-1.05 2.4-2.2.25-.5 0-.9-.3-.45-.95-.3-3.15.9-5.95.9-2.85 0-6-.9z"/><path id="g" fill="#232020" d="M64.1 16.65q0-1.6-1.15-2.75-1.1-1.1-2.6-1.15v-.05q0-1.6-1.15-2.75T56.45 8.8h-.35Q56 7.5 55 6.5q-1.15-1.15-2.75-1.15-.8 0-1.5.3-.3-.85-.95-1.5Q48.65 3 47.05 3q-1.45 0-2.5.95-.2-.3-.45-.55-1.15-1.15-2.75-1.15-1.4 0-2.45.9-.05-.1-.1-.15-1.15-1.15-2.75-1.15T33.3 3q-.05.05-.1.15-1.05-.9-2.45-.9-1.6 0-2.75 1.15-.25.25-.45.55Q26.5 3 25.05 3q-1.6 0-2.75 1.15-.65.65-.95 1.5-.7-.3-1.5-.3-1.6 0-2.75 1.15-1 1-1.1 2.3h-.35q-1.6 0-2.75 1.15t-1.15 2.75v.05q-1.5.05-2.6 1.15Q8 15.05 8 16.65q0 .55.15 1.05-.9.25-1.6.95Q5.4 19.8 5.4 21.4q0 .8.3 1.5-1 .25-1.75 1-1.15 1.15-1.15 2.75t1.15 2.75l.1.1q-.3.2-.6.5-.2.2-.4.45-.75 1-.75 2.3 0 1.6 1.15 2.75l.3.3q-.9 1.05-.9 2.45v.05q.05.425.1.8.137.675.5 1.25h8.6l.05-.1q.425.1.85.1 1.6 0 2.75-1.15 1.04-1.04 1.15-2.45 1.6 0 2.75-1.15 1.007-1.007 1.1-2.35.69.25 1.45.25 1.6 0 2.75-1.15 1.073-1.073 1.15-2.55.963.7 2.2.7 1.6 0 2.75-1.15.48-.48.75-1.05.859.5 1.9.5 1.36 0 2.4-.85 1.034.85 2.4.85 1.05 0 1.9-.45.25.5.75 1 1.15 1.15 2.75 1.15 1.25 0 2.2-.7.1 1.5 1.15 2.55 1.15 1.15 2.75 1.15.75 0 1.4-.25.15 1.35 1.15 2.35 1.15 1.15 2.75 1.15.1 1.4 1.15 2.45 1.15 1.15 2.75 1.15.419 0 .8-.1l.1.1h8.6q.375-.594.5-1.3.05-.387.1-.8 0-1.4-.9-2.45l.3-.3q1.15-1.15 1.15-2.75 0-1.3-.75-2.3-.2-.25-.4-.45-.3-.3-.6-.5l.1-.1q1.15-1.15 1.15-2.75t-1.15-2.75q-.75-.75-1.75-1 .3-.7.3-1.5 0-1.6-1.15-2.75-.7-.7-1.6-.95.15-.5.15-1.05z"/></defs><use xlink:href="#a"/><use transform="translate(0 -.25) scale(.5625)" xlink:href="#b"/><use transform="matrix(.56244 0 0 .56244 0 -.25)" xlink:href="#c"/><use transform="matrix(.56244 0 0 .56244 0 -.25)" xlink:href="#d"/><use transform="matrix(.56244 0 0 .56244 0 -.25)" xlink:href="#e"/><use transform="matrix(.56244 0 0 .56244 0 -.25)" xlink:href="#f"/><use xlink:href="#g"/></svg>

<svg xmlns="http://www.w3.org/2000/svg" version="1.1" xmlns:xlink="http://www.w3.org/1999/xlink" preserveAspectRatio="none" x="0px" y="0px" width="72px" height="72px" viewBox="0 0 72 72">
<defs>
<g id="Layer1_0_MEMBER_0_FILL">
<path fill="#232020" stroke="none" d="
M 55.2 48.15
Q 54 48.35 53.1 49.25 51.95 50.4 51.95 52 51.95 53.6 53.1 54.75 53.325 54.95 53.55 55.15 53.775 55.325 54 55.45 53.55 55.7 53.1 56.15 52.65 56.6 52.4 57.1 52.15 57.05 51.9 57.05 50.3 57.05 49.15 58.2 49.1173828125 58.2326171875 49.05 58.25 48.403125 58.975390625 48.15 59.85 47.9 60.05 47.7 60.25 46.55 61.4 46.55 63 46.55 64.6 47.7 65.75 48.85 66.9 50.45 66.9 52.05 66.9 53.2 65.75 53.8 65.15 54.05 64.45 54.85 64.85 55.8 64.85 57.4 64.85 58.55 63.7 58.7 63.55 58.85 63.4 59.25 63.45 59.7 63.45 61.3 63.45 62.45 62.3 63.35 61.4 63.55 60.25 64.3 59.95 64.95 59.3 66.1 58.15 66.1 56.55 66.1 55.35 65.45 54.45 65.9 54.15 66.25 53.8 67.4 52.65 67.4 51.05 67.4 49.6 66.45 48.5 66.9 48.25 67.3 47.85 68.45 46.7 68.45 45.1 68.45 43.9 67.8 42.95 68.45 42.00234375 68.45 40.8 68.45 39.2 67.3 38.05 66.15 36.9 64.55 36.9 62.95 36.9 61.8 38.05 61.25 38.6 60.95 39.3 59.4 39.3 58.25 40.45 57.1 41.6 57.1 43.2 57.1 43.5 57.15 43.85 56.65 44.1 56.25 44.5 55.1 45.65 55.1 47.25 55.1 47.7 55.2 48.15
M 4.75 38.05
Q 3.6 39.2 3.6 40.8 3.6 42.001953125 4.25 42.95 3.6 43.898046875 3.6 45.1 3.6 46.7 4.75 47.85 5.1494140625 48.2494140625 5.6 48.5 4.65 49.5935546875 4.65 51.05 4.65 52.65 5.8 53.8 6.16953125 54.16953125 6.55 54.4 5.95 55.3607421875 5.95 56.55 5.95 58.15 7.1 59.3 7.7333984375 59.9333984375 8.5 60.2 8.6974609375 61.3974609375 9.6 62.3 10.75 63.45 12.35 63.45 12.7896484375 63.45 13.2 63.35 13.3359375 63.5359375 13.5 63.7 14.65 64.85 16.25 64.85 17.1890625 64.85 17.95 64.45 18.259765625 65.159765625 18.85 65.75 20 66.9 21.6 66.9 23.2 66.9 24.35 65.75 25.5 64.6 25.5 63 25.5 61.4 24.35 60.25 24.13359375 60.03359375 23.9 59.85 23.6365234375 58.9365234375 22.9 58.2 21.75 57.05 20.15 57.05 19.8955078125 57.05 19.65 57.05 19.3826171875 56.5826171875 18.95 56.15 18.52265625 55.72265625 18 55.45 18.520703125 55.179296875 18.95 54.75 20.1 53.6 20.1 52 20.1 50.4 18.95 49.25 18.05 48.35 16.85 48.15 16.95 47.7 16.95 47.25 16.95 45.65 15.8 44.5 15.4 44.1 14.9 43.85 14.95 43.5 14.95 43.2 14.95 41.6 13.8 40.45 12.65 39.3 11.1 39.3 10.8 38.6 10.25 38.05 9.1 36.9 7.5 36.9 5.9 36.9 4.75 38.05 Z"/>
</g>

<g id="Layer1_0_MEMBER_1_FILL">
<path fill="#8E726A" stroke="none" d="
M 106.75 73.45
Q 106.75 44.75 97.85 30.85 87.7 14.9 64.15 14.9 40.6 14.9 30.25 31 21.2 45.15 21.2 73.8 21.2 97.8 36.65 111.3 49 122.15 64.15 122.15 79.2 122.15 91.5 111.15 106.75 97.45 106.75 73.45 Z"/>
</g>

<g id="Layer1_0_MEMBER_2_MEMBER_0_FILL">
<path fill="#444444" stroke="none" d="
M 40.15 72.35
Q 38.45 74.35 38.45 77.2 38.45 80.1 40.15 82.1 41.8 84.1 44.2 84.1 46.55 84.1 48.25 82.1 49.9 80.05 49.9 77.2 49.9 74.35 48.25 72.35 46.55 70.3 44.2 70.3 41.8 70.3 40.15 72.35 Z"/>
</g>

<g id="Layer1_0_MEMBER_2_MEMBER_1_FILL">
<path fill="#444444" stroke="none" d="
M 87.85 72.35
Q 86.15 70.3 83.8 70.3 81.4 70.3 79.75 72.35 78.05 74.35 78.05 77.2 78.05 80.05 79.75 82.1 81.4 84.1 83.8 84.1 86.15 84.1 87.85 82.1 89.5 80.1 89.5 77.2 89.5 74.35 87.85 72.35 Z"/>
</g>

<g id="Layer1_0_MEMBER_2_MEMBER_2_FILL">
<path fill="#513F35" stroke="none" d="
M 63.95 108.75
Q 68.85 108.75 72.95 106.6 76.15 104.9 77.45 102.9 78.15 101.85 77.8 101.2 77.45 100.55 76.35 100.55
L 51.6 100.55
Q 50.5 100.55 50.15 101.2 49.8 101.85 50.5 102.9 51.8 104.9 55 106.6 59.1 108.75 63.95 108.75 Z"/>
</g>

<g id="Layer1_0_MEMBER_2_MEMBER_3_FILL">
<path fill="#563E37" stroke="none" d="
M 58 90
Q 57.35 89.85 57.1 90.3 56.8 90.7 57.05 91.2 57.75 92.35 59.45 93.4 61.65 94.75 64 94.75 66.35 94.75 68.5 93.4 70.2 92.35 70.9 91.2 71.15 90.7 70.9 90.3 70.6 89.85 69.95 90 66.8 90.9 64 90.9 61.15 90.9 58 90 Z"/>
</g>

<g id="Layer1_0_MEMBER_3_FILL">
<path fill="#232020" stroke="none" d="
M 64.1 16.65
Q 64.1 15.05 62.95 13.9 61.85 12.8 60.35 12.75
L 60.35 12.7
Q 60.35 11.1 59.2 9.95 58.05 8.8 56.45 8.8 56.3 8.8 56.1 8.8 56 7.5 55 6.5 53.85 5.35 52.25 5.35 51.45 5.35 50.75 5.65 50.45 4.8 49.8 4.15 48.65 3 47.05 3 45.6 3 44.55 3.95 44.35 3.65 44.1 3.4 42.95 2.25 41.35 2.25 39.95 2.25 38.9 3.15 38.85 3.05 38.8 3 37.65 1.85 36.05 1.85 34.45 1.85 33.3 3 33.25 3.05 33.2 3.15 32.15 2.25 30.75 2.25 29.15 2.25 28 3.4 27.75 3.65 27.55 3.95 26.5 3 25.05 3 23.45 3 22.3 4.15 21.65 4.8 21.35 5.65 20.65 5.35 19.85 5.35 18.25 5.35 17.1 6.5 16.1 7.5 16 8.8 15.8 8.8 15.65 8.8 14.05 8.8 12.9 9.95 11.75 11.1 11.75 12.7
L 11.75 12.75
Q 10.25 12.8 9.15 13.9 8 15.05 8 16.65 8 17.2 8.15 17.7 7.25 17.95 6.55 18.65 5.4 19.8 5.4 21.4 5.4 22.2 5.7 22.9 4.7 23.15 3.95 23.9 2.8 25.05 2.8 26.65 2.8 28.25 3.95 29.4 4 29.45 4.05 29.5 3.75 29.7 3.45 30 3.25 30.2 3.05 30.45 2.3 31.45 2.3 32.75 2.3 34.35 3.45 35.5 3.6 35.65 3.75 35.8 2.85 36.85 2.85 38.25 2.85 38.2859375 2.85 38.3 2.9 38.725 2.95 39.1 3.08671875 39.7748046875 3.45 40.35
L 12.05 40.35 12.1 40.25
Q 12.5248046875 40.35 12.95 40.35 14.55 40.35 15.7 39.2 16.740625 38.159375 16.85 36.75 18.45 36.75 19.6 35.6 20.60703125 34.59296875 20.7 33.25 21.3904296875 33.5 22.15 33.5 23.75 33.5 24.9 32.35 25.973046875 31.276953125 26.05 29.8 27.012890625 30.5 28.25 30.5 29.85 30.5 31 29.35 31.479296875 28.870703125 31.75 28.3 32.608984375 28.8 33.65 28.8 35.009765625 28.8 36.05 27.95 37.0837890625 28.8 38.45 28.8 39.5 28.8 40.35 28.35 40.6 28.85 41.1 29.35 42.25 30.5 43.85 30.5 45.1 30.5 46.05 29.8 46.15 31.3 47.2 32.35 48.35 33.5 49.95 33.5 50.7 33.5 51.35 33.25 51.5 34.6 52.5 35.6 53.65 36.75 55.25 36.75 55.35 38.15 56.4 39.2 57.55 40.35 59.15 40.35 59.56875 40.35 59.95 40.25
L 60.05 40.35 68.65 40.35
Q 69.025 39.75625 69.15 39.05 69.2 38.6625 69.25 38.25 69.25 36.85 68.35 35.8 68.5 35.65 68.65 35.5 69.8 34.35 69.8 32.75 69.8 31.45 69.05 30.45 68.85 30.2 68.65 30 68.35 29.7 68.05 29.5 68.1 29.45 68.15 29.4 69.3 28.25 69.3 26.65 69.3 25.05 68.15 23.9 67.4 23.15 66.4 22.9 66.7 22.2 66.7 21.4 66.7 19.8 65.55 18.65 64.85 17.95 63.95 17.7 64.1 17.2 64.1 16.65 Z"/>
</g>
</defs>

<g id="Layer_1">
<g transform="matrix( 1, 0, 0, 1, 0,0) ">
<use xlink:href="#Layer1_0_MEMBER_0_FILL"/>
</g>

<g transform="matrix( 0.5625, 0, 0, 0.5625, 0,-0.25) ">
<use xlink:href="#Layer1_0_MEMBER_1_FILL"/>
</g>

<g transform="matrix( 0.56243896484375, 0, 0, 0.56243896484375, 0,-0.25) ">
<use xlink:href="#Layer1_0_MEMBER_2_MEMBER_0_FILL"/>
</g>

<g transform="matrix( 0.56243896484375, 0, 0, 0.56243896484375, 0,-0.25) ">
<use xlink:href="#Layer1_0_MEMBER_2_MEMBER_1_FILL"/>
</g>

<g transform="matrix( 0.56243896484375, 0, 0, 0.56243896484375, 0,-0.25) ">
<use xlink:href="#Layer1_0_MEMBER_2_MEMBER_2_FILL"/>
</g>

<g transform="matrix( 0.56243896484375, 0, 0, 0.56243896484375, 0,-0.25) ">
<use xlink:href="#Layer1_0_MEMBER_2_MEMBER_3_FILL"/>
</g>

<g transform="matrix( 1, 0, 0, 1, 0,0) ">
<use xlink:href="#Layer1_0_MEMBER_3_FILL"/>
</g>
</g>

<g id="Camada_1"/>
</svg>
